picto/ramp-up-left.svg

<svg class="color-immutable" width="24" height="24" viewBox="0 0 24 24" fill="none" xmlns="http://www.w3.org/2000/svg"><g clip-path="url(#a)"><path d="M0 22.5v-21C0 .675.675 0 1.5 0h21c.825 0 1.5.675 1.5 1.5v21c0 .825-.675 1.5-1.5 1.5h-21C.675 24 0 23.325 0 22.5Z" fill="#2D327D"/><path d="M17.753 5.627a1.312 1.312 0 1 0 0-2.625 1.312 1.312 0 0 0 0 2.625ZM3 21h14.325v-.663L3 18v3ZM19.05 16.21V8.513l.824 1.05v2.813a.489.489 0 0 0 .976 0V9.181a.747.747 0 0 0-.16-.463L19.104 6.7a1.498 1.498 0 0 0-2.679.927v5.046l-1.542 1.543a.747.747 0 0 0-.22.53v3.91a.694.694 0 0 0 1.386 0v-3.434l1.5-1.5v2.502a.75.75 0 0 0 .126.416l2.376 3.676a.693.693 0 1 0 1.165-.753L19.05 16.21Z" fill="#fff"/><path d="M14.719 11.545c.059 0 .117-.01.172-.03l.897-.325v-1.077l-1.241.449a.506.506 0 0 0 .172.983Z" fill="#fff"/></g><defs><clipPath id="a"><path fill="#fff" d="M0 0h24v24H0z"/></clipPath></defs></svg>

<svg class="color-immutable" width="24" height="24" viewBox="0 0 24 24" fill="none" xmlns="http://www.w3.org/2000/svg"><path d="M0 22.5V1.5C0 0.675 0.675 0 1.5 0H22.5C23.325 0 24 0.675 24 1.5V22.5C24 23.325 23.325 24 22.5 24H1.5C0.675 24 0 23.325 0 22.5Z" fill="#2D327D"/><path d="M17.753 5.627C18.478 5.627 19.065 5.039 19.065 4.314C19.065 3.589 18.477 3.001 17.753 3.001C17.028 3.001 16.441 3.589 16.441 4.314C16.441 5.039 17.029 5.627 17.753 5.627Z" fill="white"/><path d="M3 21H17.325V20.337L3 18V21Z" fill="white"/><path d="M19.05 16.21V8.513L19.874 9.563V12.376C19.874 12.645 20.093 12.864 20.362 12.864C20.631 12.864 20.85 12.646 20.85 12.376V9.181C20.85 9.013 20.794 8.85 20.69 8.718L19.104 6.7C18.82 6.338 18.385 6.127 17.925 6.127C17.097 6.127 16.425 6.799 16.425 7.627V12.673L14.883 14.216C14.742 14.356 14.663 14.547 14.663 14.746V18.656C14.663 19.039 14.974 19.35 15.356 19.35C15.739 19.35 16.049 19.039 16.049 18.656V15.222L17.549 13.722V16.224C17.549 16.372 17.593 16.517 17.675 16.64L20.051 20.316C20.179 20.514 20.398 20.633 20.634 20.633C21.017 20.633 21.327 20.322 21.327 19.939C21.327 19.806 21.288 19.675 21.216 19.563L19.05 16.21Z" fill="white"/><path d="M14.719 11.545C14.778 11.545 14.836 11.535 14.891 11.515L15.788 11.19V10.113L14.547 10.562C14.347 10.634 14.213 10.825 14.213 11.038C14.212 11.318 14.439 11.545 14.719 11.545Z" fill="white"/></svg>
